X:1
T: The Hag's Grave
C:
R:Reel
Q: 232
K:G
M:4/4
L:1/8
EG AB c2 BA|GE ED GE ED|EG AB cB ce|dB GB cB cA|
EG AB c2 BA|GE ED GE ED|EG AB cB ce|dB GB BA A2|
|:cB cd e2 ed|cB ce dB GB|cB cd gf ge|dB GB BA A2|
c2 cd e2 ed|c2 ce dB GB|ce dc Bd cB|AG AB cB cA:|
EG AB c2 BA|GE ED GE ED|EG AB cB ce|dB GB cB cA|
EG AB c2 BA|GE ED GE ED|EG AB cB ce|dB GB BA A2||
